img/booking.svg

<svg xmlns="http://www.w3.org/2000/svg" xmlns:xlink="http://www.w3.org/1999/xlink" stroke-width=".501" stroke-linejoin="bevel" fill-rule="evenodd" overflow="visible" width="438.048" height="438.048" viewBox="0 0 328.536 328.536" xmlns:v="https://vecta.io/nano"><defs><linearGradient id="A" gradientUnits="userSpaceOnUse" x1="164.267" y1="328.535" x2="164.267" y2=".002"><stop offset="0" stop-color="#8190c9"/><stop offset="1" stop-color="#6da5ce"/></linearGradient><path id="B" d="M143.069 176.351c5.452.034 9.608 1.577 12.47 4.628s4.305 7.412 4.326 13.078v37.008c-.021 5.667-1.463 10.027-4.326 13.078s-7.018 4.594-12.47 4.627c-5.449-.033-9.606-1.576-12.468-4.627s-4.305-7.411-4.326-13.078v-37.008c.021-5.666 1.463-10.025 4.326-13.078s7.019-4.594 12.468-4.628zm0 10.063c-1.776-.027-3.17.502-4.18 1.583s-1.526 2.867-1.546 5.355v38.417c.02 2.49.534 4.276 1.546 5.356s2.404 1.609 4.18 1.584c1.777.025 3.17-.503 4.182-1.584s1.526-2.866 1.545-5.356v-38.417c-.019-2.488-.535-4.274-1.545-5.355s-2.405-1.61-4.182-1.583z"/></defs><g transform="matrix(1 0 0 -1 0 328.536)" stroke="none"><path d="M.21 254.286V74.251C.21 33.266 33.474.002 74.459.002h179.617c40.985 0 74.249 33.264 74.249 74.249v180.035c0 40.985-33.264 74.249-74.249 74.249H74.459C33.474 328.535.21 295.271.21 254.286z" fill="url(#A)"/><g fill-rule="nonzero" fill="#fff"><path d="M86.463 177.359h17.404c5.541.017 9.724 1.442 12.549 4.275s4.244 6.975 4.252 12.424v6.033c.028 3.742-.606 6.869-1.9 9.378s-3.411 4.28-6.352 5.307v.201c2.457 1.003 4.265 2.646 5.423 4.929s1.734 5.234 1.724 8.849v2.815c.033 5.427-1.266 9.484-3.9 12.17s-6.798 4.029-12.499 4.025H86.463v-70.406zm11.069 41.744v18.6h5.33c1.951.012 3.379-.565 4.287-1.734s1.355-3.004 1.344-5.505v-3.921c-.006-1.864-.274-3.341-.803-4.432s-1.291-1.865-2.281-2.33-2.172-.691-3.553-.678h-4.324zm0-31.683v21.622h4.928c1.671.015 3.032-.241 4.085-.764s1.826-1.413 2.32-2.664.739-2.957.733-5.12v-6.135c-.005-2.577-.496-4.388-1.47-5.43s-2.395-1.547-4.261-1.509h-6.335z"/><use xlink:href="#B"/><use xlink:href="#B" x="40.229"/><path d="M207.543 177.356h11.069v22.431l4.426 8.953 9.356-31.384h11.568l-13.379 44.561 13.178 25.849h-11.066l-14.083-29.672v29.672h-11.069v-70.41zM75.555 79.763c5.452.034 9.608 1.577 12.47 4.628s4.305 7.412 4.326 13.078v37.008c-.021 5.667-1.463 10.027-4.326 13.078s-7.018 4.594-12.47 4.627c-5.449-.033-9.606-1.576-12.468-4.627s-4.305-7.411-4.326-13.078V97.469c.021-5.666 1.463-10.025 4.326-13.078s7.019-4.594 12.468-4.628zm0 10.063c-1.776-.027-3.17.502-4.18 1.583s-1.526 2.867-1.546 5.355v38.417c.02 2.49.534 4.276 1.546 5.356s2.404 1.609 4.18 1.584c1.777.025 3.17-.503 4.182-1.584s1.526-2.866 1.545-5.356V96.764c-.019-2.488-.535-4.274-1.545-5.355s-2.405-1.61-4.182-1.583zm24.242-9.058h9.846v51.4h.202l13.297-51.4h11.356v70.41h-9.846v-42.145h-.201l-10.778 42.145H99.797v-70.41zm42.934.003h29.277v10.061H153.8v60.346h-11.069V80.771zm34.629-.003h11.069v70.41H177.36v-70.41zm19.3 0h9.846v51.4h.202l13.297-51.4h11.356v70.41h-9.846v-42.145h-.201l-10.778 42.145H196.66v-70.41zm42.934.003h30.182v10.061h-19.113v21.621h15.19v10.062h-15.19v18.599h19.113v10.062h-30.182V80.771z"/></g></g></svg>

<?xml version="1.0" standalone="no"?>
<!DOCTYPE svg PUBLIC "-//W3C//DTD SVG 1.1//EN" "http://www.w3.org/Graphics/SVG/1.1/DTD/svg11.dtd">
<!--Generator: Xara Designer (www.xara.com), SVG filter version: 4.0.0.1-->
<svg stroke-width="0.501" stroke-linejoin="bevel" fill-rule="evenodd" xmlns:xlink="http://www.w3.org/1999/xlink" xmlns="http://www.w3.org/2000/svg" version="1.1" overflow="visible" width="328.536pt" height="328.536pt" viewBox="0 0 328.536 328.536">
 <defs>
  <marker id="DefaultArrow2" markerUnits="strokeWidth" viewBox="0 0 1 1" markerWidth="1" markerHeight="1" overflow="visible" orient="auto">
   <!-- REF_ARROW_STRAIGHT (-2) -->
   <g transform="scale(0.0092592592)">
    <!-- 1/108 -->
    <path d="M -9 54 L -9 -54 L 117 0 z"/>
   </g>
  </marker>
  <marker id="DefaultArrow3" markerUnits="strokeWidth" viewBox="0 0 1 1" markerWidth="1" markerHeight="1" overflow="visible" orient="auto">
   <!-- REF_ARROW_ANGLED -->
   <g transform="scale(0.0092592592)">
    <path d="M -27 54 L -9 0 L -27 -54 L 135 0 z"/>
   </g>
  </marker>
  <marker id="DefaultArrow4" markerUnits="strokeWidth" viewBox="0 0 1 1" markerWidth="1" markerHeight="1" overflow="visible" orient="auto">
   <!-- REF_ARROW_ROUNDED -->
   <g transform="scale(0.0092592592)">
    <path d="M -9,0 L -9,-45 C -9,-51.708 2.808,-56.580 9,-54 L 117,-9 C 120.916,-7.369 126.000,-4.242 126,0 C 126,4.242 120.916,7.369 117,9 L 9,54 C 2.808,56.580 -9,51.708 -9,45 z"/>
   </g>
  </marker>
  <marker id="DefaultArrow5" markerUnits="strokeWidth" viewBox="0 0 1 1" markerWidth="1" markerHeight="1" overflow="visible" orient="auto">
   <!-- REF_ARROW_SPOT -->
   <g transform="scale(0.0092592592)">
    <path d="M -54, 0 C -54,29.807 -29.807,54 0,54 C 29.807,54 54,29.807 54,0 C 54,-29.807 29.807,-54 0,-54 C -29.807,-54 -54,-29.807 -54,0 z"/>
   </g>
  </marker>
  <marker id="DefaultArrow6" markerUnits="strokeWidth" viewBox="0 0 1 1" markerWidth="1" markerHeight="1" overflow="visible" orient="auto">
   <!-- REF_ARROW_DIAMOND -->
   <g transform="scale(0.0092592592)">
    <path d="M -63,0 L 0,63 L 63,0 L 0,-63 z"/>
   </g>
  </marker>
  <marker id="DefaultArrow7" markerUnits="strokeWidth" viewBox="0 0 1 1" markerWidth="1" markerHeight="1" overflow="visible" orient="auto">
   <!-- REF_ARROW_FEATHER -->
   <g transform="scale(0.0092592592)">
    <path d="M 18,-54 L 108,-54 L 63,0 L 108,54 L 18, 54 L -36,0 z"/>
   </g>
  </marker>
  <marker id="DefaultArrow8" markerUnits="strokeWidth" viewBox="0 0 1 1" markerWidth="1" markerHeight="1" overflow="visible" orient="auto">
   <!-- REF_ARROW_FEATHER2 -->
   <g transform="scale(0.0092592592)">
    <path d="M -36,0 L 18,-54 L 54,-54 L 18,-18 L 27,-18 L 63,-54 L 99,-54 L 63,-18 L 72,-18 L 108,-54 L 144,-54 L 90,0 L 144,54 L 108,54 L 72,18 L 63,18 L 99,54 L 63,54 L 27,18 L 18,18 L 54,54 L 18,54 z"/>
   </g>
  </marker>
  <marker id="DefaultArrow9" markerUnits="strokeWidth" viewBox="0 0 1 1" markerWidth="1" markerHeight="1" overflow="visible" orient="auto">
   <!-- REF_ARROW_HOLLOWDIAMOND -->
   <g transform="scale(0.0092592592)">
    <path d="M 0,45 L -45,0 L 0, -45 L 45, 0 z M 0, 63 L-63, 0 L 0, -63 L 63, 0 z"/>
   </g>
  </marker>
  <filter id="StainedFilter">
   <feBlend mode="multiply" in2="BackgroundImage" in="SourceGraphic" result="blend"/>
   <feComposite in="blend" in2="SourceAlpha" operator="in" result="comp"/>
  </filter>
  <filter id="BleachFilter">
   <feBlend mode="screen" in2="BackgroundImage" in="SourceGraphic" result="blend"/>
   <feComposite in="blend" in2="SourceAlpha" operator="in" result="comp"/>
  </filter>
  <filter id="InvertTransparencyBitmapFilter">
   <feComponentTransfer>
    <feFuncR type="gamma" amplitude="1.055" exponent=".416666666" offset="-0.055"/>
    <feFuncG type="gamma" amplitude="1.055" exponent=".416666666" offset="-0.055"/>
    <feFuncB type="gamma" amplitude="1.055" exponent=".416666666" offset="-0.055"/>
   </feComponentTransfer>
   <feComponentTransfer>
    <feFuncR type="linear" slope="-1" intercept="1"/>
    <feFuncG type="linear" slope="-1" intercept="1"/>
    <feFuncB type="linear" slope="-1" intercept="1"/>
    <feFuncA type="linear" slope="1" intercept="0"/>
   </feComponentTransfer>
   <feComponentTransfer>
    <feFuncR type="gamma" amplitude="1" exponent="2.4" offset="0"/>
    <feFuncG type="gamma" amplitude="1" exponent="2.4" offset="0"/>
    <feFuncB type="gamma" amplitude="1" exponent="2.4" offset="0"/>
   </feComponentTransfer>
  </filter>
  <linearGradient id="LinearGradient" gradientUnits="userSpaceOnUse" x1="0" y1="0" x2="0" y2="-328.533" gradientTransform="translate(164.267 328.535)">
   <stop offset="0" stop-color="#8190c9"/>
   <stop offset="1" stop-color="#6da5ce"/>
  </linearGradient>
  <linearGradient id="LinearGradient_1" gradientUnits="userSpaceOnUse" x1="0" y1="0" x2="66.678" y2="0" gradientTransform="translate(810.935 -125.119) rotate(-90)">
   <stop offset="0" stop-color="#c981af"/>
   <stop offset="1" stop-color="#9056b0"/>
  </linearGradient>
 </defs>
 <g id="Document" fill="none" stroke="black" font-family="Times New Roman" font-size="16" transform="scale(1 -1)">
  <g id="Spread" transform="translate(0 -328.536)">
   <g id="Page background">
    <path d="M 0,328.535 L 0,0 L 328.535,0 L 328.535,328.535 L 0,328.535 Z" stroke="none" stroke-width="0" marker-start="none" marker-end="none" stroke-miterlimit="79.8403193612775"/>
   </g>
   <g id="Layer 1">
    <path d="M 0.21,254.286 L 0.21,74.251 C 0.21,33.266 33.474,0.002 74.459,0.002 L 254.076,0.002 C 295.061,0.002 328.325,33.266 328.325,74.251 L 328.325,254.286 C 328.325,295.271 295.061,328.535 254.076,328.535 L 74.459,328.535 C 33.474,328.535 0.21,295.271 0.21,254.286 Z" stroke="none" stroke-width="13.545" stroke-linejoin="miter" stroke-linecap="round" marker-start="none" marker-end="none" stroke-miterlimit="79.8403193612775" fill="url(#LinearGradient)"/>
    <g id="Group" fill-rule="nonzero" stroke-linejoin="round" stroke-linecap="round" stroke="none" stroke-width="6.048" fill="#ffffff" stroke-miterlimit="79.8403193612775">
     <g id="Group_1">
      <path d="M 86.463,177.359 L 103.867,177.359 C 109.408,177.376 113.591,178.801 116.416,181.634 C 119.242,184.468 120.66,188.609 120.668,194.058 L 120.668,200.091 C 120.696,203.833 120.062,206.96 118.768,209.469 C 117.474,211.98 115.357,213.749 112.416,214.776 L 112.416,214.977 C 114.873,215.98 116.681,217.623 117.839,219.906 C 118.998,222.191 119.573,225.14 119.563,228.755 L 119.563,231.57 C 119.596,236.997 118.297,241.054 115.663,243.74 C 113.031,246.428 108.865,247.769 103.164,247.765 L 86.463,247.765 L 86.463,177.359 Z M 97.532,219.103 L 97.532,237.703 L 102.862,237.703 C 104.813,237.715 106.241,237.138 107.149,235.969 C 108.056,234.801 108.504,232.965 108.493,230.464 L 108.493,226.543 C 108.487,224.679 108.219,223.202 107.69,222.111 C 107.159,221.023 106.399,220.246 105.409,219.781 C 104.42,219.317 103.237,219.09 101.856,219.103 L 97.532,219.103 Z M 97.532,187.42 L 97.532,209.042 L 102.46,209.042 C 104.131,209.057 105.492,208.801 106.545,208.278 C 107.597,207.752 108.371,206.865 108.865,205.614 C 109.359,204.364 109.604,202.657 109.598,200.494 L 109.598,194.359 C 109.593,191.782 109.102,189.971 108.128,188.929 C 107.154,187.885 105.733,187.382 103.867,187.42 L 97.532,187.42 Z" marker-start="none" marker-end="none"/>
      <path d="M 143.069,176.351 C 148.521,176.385 152.677,177.928 155.539,180.979 C 158.402,184.032 159.844,188.391 159.865,194.057 L 159.865,231.065 C 159.844,236.732 158.402,241.092 155.539,244.143 C 152.677,247.194 148.521,248.737 143.069,248.77 C 137.62,248.737 133.463,247.194 130.601,244.143 C 127.738,241.092 126.296,236.732 126.275,231.065 L 126.275,194.057 C 126.296,188.391 127.738,184.032 130.601,180.979 C 133.463,177.928 137.62,176.385 143.069,176.351 Z M 143.069,186.414 C 141.293,186.387 139.899,186.916 138.889,187.997 C 137.877,189.078 137.363,190.864 137.343,193.352 L 137.343,231.769 C 137.363,234.259 137.877,236.045 138.889,237.125 C 139.899,238.206 141.293,238.734 143.069,238.709 C 144.846,238.734 146.239,238.206 147.251,237.125 C 148.261,236.045 148.777,234.259 148.796,231.769 L 148.796,193.352 C 148.777,190.864 148.261,189.078 147.251,187.997 C 146.239,186.916 144.846,186.387 143.069,186.414 Z" marker-start="none" marker-end="none"/>
      <path d="M 183.298,176.351 C 188.75,176.385 192.906,177.928 195.768,180.979 C 198.631,184.032 200.073,188.391 200.094,194.057 L 200.094,231.065 C 200.073,236.732 198.631,241.092 195.768,244.143 C 192.906,247.194 188.75,248.737 183.298,248.77 C 177.849,248.737 173.692,247.194 170.83,244.143 C 167.967,241.092 166.525,236.732 166.504,231.065 L 166.504,194.057 C 166.525,188.391 167.967,184.032 170.83,180.979 C 173.692,177.928 177.849,176.385 183.298,176.351 Z M 183.298,186.414 C 181.522,186.387 180.128,186.916 179.118,187.997 C 178.106,189.078 177.592,190.864 177.572,193.352 L 177.572,231.769 C 177.592,234.259 178.106,236.045 179.118,237.125 C 180.128,238.206 181.522,238.734 183.298,238.709 C 185.075,238.734 186.468,238.206 187.48,237.125 C 188.49,236.045 189.006,234.259 189.025,231.769 L 189.025,193.352 C 189.006,190.864 188.49,189.078 187.48,187.997 C 186.468,186.916 185.075,186.387 183.298,186.414 Z" marker-start="none" marker-end="none"/>
      <path d="M 207.543,177.356 L 218.612,177.356 L 218.612,199.787 L 223.038,208.74 L 232.394,177.356 L 243.962,177.356 L 230.583,221.917 L 243.761,247.766 L 232.695,247.766 L 218.612,218.094 L 218.612,247.766 L 207.543,247.766 L 207.543,177.356 Z" marker-start="none" marker-end="none"/>
     </g>
     <g id="Group_2">
      <path d="M 75.555,79.763 C 81.007,79.797 85.163,81.34 88.025,84.391 C 90.888,87.444 92.33,91.803 92.351,97.469 L 92.351,134.477 C 92.33,140.144 90.888,144.504 88.025,147.555 C 85.163,150.606 81.007,152.149 75.555,152.182 C 70.106,152.149 65.949,150.606 63.087,147.555 C 60.224,144.504 58.782,140.144 58.761,134.477 L 58.761,97.469 C 58.782,91.803 60.224,87.444 63.087,84.391 C 65.949,81.34 70.106,79.797 75.555,79.763 Z M 75.555,89.826 C 73.779,89.799 72.385,90.328 71.375,91.409 C 70.363,92.49 69.849,94.276 69.829,96.764 L 69.829,135.181 C 69.849,137.671 70.363,139.457 71.375,140.537 C 72.385,141.618 73.779,142.146 75.555,142.121 C 77.332,142.146 78.725,141.618 79.737,140.537 C 80.747,139.457 81.263,137.671 81.282,135.181 L 81.282,96.764 C 81.263,94.276 80.747,92.49 79.737,91.409 C 78.725,90.328 77.332,89.799 75.555,89.826 Z" marker-start="none" marker-end="none"/>
      <path d="M 99.797,80.768 L 109.643,80.768 L 109.643,132.168 L 109.845,132.168 L 123.142,80.768 L 134.498,80.768 L 134.498,151.178 L 124.652,151.178 L 124.652,109.033 L 124.451,109.033 L 113.673,151.178 L 99.797,151.178 L 99.797,80.768 Z" marker-start="none" marker-end="none"/>
      <path d="M 142.731,80.771 L 172.008,80.771 L 172.008,90.832 L 153.8,90.832 L 153.8,151.178 L 142.731,151.178 L 142.731,80.771 Z" marker-start="none" marker-end="none"/>
      <path d="M 177.36,80.768 L 188.429,80.768 L 188.429,151.178 L 177.36,151.178 L 177.36,80.768 Z" marker-start="none" marker-end="none"/>
      <path d="M 196.66,80.768 L 206.506,80.768 L 206.506,132.168 L 206.708,132.168 L 220.005,80.768 L 231.361,80.768 L 231.361,151.178 L 221.515,151.178 L 221.515,109.033 L 221.314,109.033 L 210.536,151.178 L 196.66,151.178 L 196.66,80.768 Z" marker-start="none" marker-end="none"/>
      <path d="M 239.594,80.771 L 269.776,80.771 L 269.776,90.832 L 250.663,90.832 L 250.663,112.453 L 265.853,112.453 L 265.853,122.515 L 250.663,122.515 L 250.663,141.114 L 269.776,141.114 L 269.776,151.176 L 239.594,151.176 L 239.594,80.771 Z" marker-start="none" marker-end="none"/>
     </g>
    </g>
   </g>
  </g>
 </g>
</svg>
